.github/assets/shipshape.svg

<svg height="127" viewBox="0 0 479 127" width="479" xmlns="http://www.w3.org/2000/svg"><g fill="#3c434c" fill-rule="evenodd"><path d="m37.823915 111.138766.161085-.556766.0236064.080573c1.3124277 4.436265 3.351416 7.965105 6.0682315 10.508064 5.6924994 5.328221 13.7701886 5.359822 18.7448512.342492l.3961224-.412256c2.9877311-3.201649 3.8673729-6.968801 3.0341273-10.467332l-.0979388-.376541.2015432-.138309c6.6847597-4.764174 5.6087905-16.3367176-.1880354-20.5266526l-.1585078-.1110384.0548432-.0236829c5.3070157-2.4590044 5.6239066-12.3608441 3.1016089-18.4119919l-.284516-.6686883c-.2188965-.5364536-.4273526-1.1258175-.6230739-1.7527504l-.1598622-.5308865.0278918-.057448c1.2626663-2.7291114 2.6509523-6.1057095 3.9690561-9.9388606 2.6397173-7.6765088 4.2974388-15.2523603 4.5204789-22.3925961.6646338-21.277087-11.6353398-34.84333083-38.3106615-34.84333083-25.510564 0-37.98900047 12.46218863-38.29892741 32.43999903l-.00632043.7393687c-.01595679 10.8503677 3.28479687 22.2102829 7.77682372 32.2887069l.36365882.8081609-.02866036.1151948c-.29775102 1.1333905-.64056811 2.2042218-1.01865723 3.1293175l-.27752578.6516753c-2.52778469 6.0500354-2.21402191 15.9634803 3.09654363 18.4241295l.05329974.0236829-.15696434.1110384c-5.85948999 4.2352285-6.89550597 16.0135416.03147735 20.6787516l.28148699.18221-.0212341.089528c-.8150352 3.525463.0899316 7.316796 3.0725313 10.528786l.1928018.202931c4.9645817 5.268681 13.1262529 5.321555 18.7892579-.180885 2.5116695-2.440455 4.4137205-5.779532 5.6695581-9.954594zm.4808503-104.27800153c52.7213966 0 25.6361625 56.21233443 23.4360155 60.61099463.3485822 1.5154252.876036 3.4474894 1.6092528 5.2311138l.20509.4823381c1.656977 3.7659265 1.1002621 10.4274493 0 10.8223997-1.0809593.3880215-1.0137813-5.8456277-3.7042265-10.5707571l-.1467912-.2516426c-.4231617-.7080548-.7568427-1.3492155-1.0183137-1.9276969l.1148674.7322755c.5767733 3.8740759.8546932 9.0790256-1.0201535 12.1627536-2.3820601 4.0747063 1.9729255 17.2327888 3.2656119 17.4110008 1.0743526.148113.8677464-2.7958485.8527986-4.9751959l-.0001044-.4112257.0100648-.4737638c.0379242-1.0008715.1907145-1.6263054.6813025-1.292458 2.2951637 1.5618693 4.1241092 9.6412054-.8538076 11.4030124-4.5372022 1.605828-13.0186671-11.4030122-10.4665877-21.6613698 1.3773683-4.1579205-1.0382708-12.9013999-1.7505972-16.4084772l.134931.8580179c.6120003 4.0862737 1.3733608 12.0712383-.2350866 22.6623824l-.0935921.6022735c-2.5548233 16.0754952 2.5883785 21.7455312 4.2636272 21.0967962 2.3222729-.912345.9324378-4.869791.9324378-5.555212 1.0512876-1.86746 9.5296917 3.937594 4.3422916 9.563714l-.1780037.18746c-4.8630908 5.160974-17.722084 1.854108-16.314787-24.0000054.8376674-8.2278114-1.8637629-16.5275291-4.2781535-21.5096393l-.313945.6344671c-2.4208692 4.9810612-5.1077952 12.6192605-4.2672668 20.8751722 1.4072969 25.8541134-10.9166596 29.1609794-15.7797503 24.0000054-5.5547297-5.683632 2.7269295-11.639384 3.7898981-9.751174l-.0969477.318816c-.3029292 1.064041-1.0996547 4.469197.8531657 5.236396 1.6584962.642247 6.6962898-4.236751 4.3179373-19.9324322l-.0743524-.4789431c-1.9802001-12.4598427-.6757727-21.4116026.0111769-24.8080947l-.1184339.5097725c-.9013408 3.7826922-3.2402401 11.9297806-1.9254795 15.8987047 2.5520794 10.2583576-5.7124803 23.2671978-10.2496825 21.6613698-4.97791682-1.761807-3.1489713-9.8411431-.8538076-11.4030124 1.5440613-1.0507407-.2580784 7.4010904 1.5440615 7.1526434 1.2926864-.178212 5.647672-13.3362945 3.2656119-17.4110008-1.9958046-3.2826781-1.5521057-8.9691134-.9052861-12.8950291-.2178925.4820679-.4859309 1.007663-.8141096 1.5792245l-.2042041.3484724c-2.8400018 4.7520302-2.7507556 11.2173501-3.8510177 10.8223997-1.0791033-.3873552-1.6353639-6.8025783-.0931507-10.6019873l.0931507-.2204124c1.0227951-2.3245771 1.6790398-5.0009215 2.0315505-6.709061l-.4212603-.8972047c-5.01063815-10.8423134-24.3811629-58.71818083 24.2740552-58.71818083z" fill-rule="nonzero"/><circle cx="20.967125" cy="56.968095" r="4.989042"/><circle cx="55.239671" cy="56.968095" r="4.989042"/><g fill-rule="nonzero" transform="translate(94.752 35.424)"><path d="m23.76 22.464c2.544.768 4.752 1.56 6.624 2.376s3.78 1.884 5.724 3.204 3.444 2.964 4.5 4.932 1.584 4.2 1.584 6.696c0 5.088-1.932 8.952-5.796 11.592s-8.868 3.96-15.012 3.96c-4.464 0-8.364-.852-11.7-2.556s-6.564-4.236-9.684-7.596l8.064-7.992c1.008 2.112 2.832 4.068 5.472 5.868s5.256 2.7 7.848 2.7c6.144-.096 9.216-2.088 9.216-5.976 0-2.112-.9-3.756-2.7-4.932s-4.188-2.22-7.164-3.132c-2.448-.72-4.572-1.476-6.372-2.268s-3.66-1.836-5.58-3.132-3.408-2.892-4.464-4.788-1.584-4.068-1.584-6.516c0-4.656 1.836-8.304 5.508-10.944s8.052-3.96 13.14-3.96c8.016 0 15.12 3.408 21.312 10.224l-7.776 7.776c-1.632-2.16-3.624-4.104-5.976-5.832s-4.872-2.592-7.56-2.592c-1.968 0-3.648.444-5.04 1.332s-2.088 2.244-2.088 4.068c0 1.056.276 1.992.828 2.808s1.38 1.524 2.484 2.124 2.076 1.068 2.916 1.404 1.932.72 3.276 1.152z"/><path d="m84.6 34.272v20.304h-10.656v-20.304c0-2.784-.42-4.776-1.26-5.976s-2.292-1.8-4.356-1.8c-4.56 0-6.84 2.592-6.84 7.776v20.304h-10.656v-52.272h10.656v20.664c1.008-2.976 4.224-4.464 9.648-4.464 4.896 0 8.364 1.236 10.404 3.708s3.06 6.492 3.06 12.06z"/><path d="m103.464 19.008v35.568h-10.656v-35.568zm.288-10.224c0 1.536-.54 2.82-1.62 3.852s-2.436 1.548-4.068 1.548c-1.536 0-2.856-.528-3.96-1.584s-1.656-2.328-1.656-3.816.552-2.736 1.656-3.744 2.424-1.512 3.96-1.512c1.632 0 2.988.504 4.068 1.512s1.62 2.256 1.62 3.744z"/><path d="m148.248 36.864c0 5.328-1.608 9.708-4.824 13.14s-7.416 5.148-12.6 5.148c-1.152 0-2.592-.3-4.32-.9s-2.976-1.284-3.744-2.052v19.08h-10.656v-52.272h10.656v2.52c1.68-2.016 4.128-3.024 7.344-3.024 5.232 0 9.564 1.74 12.996 5.22s5.148 7.86 5.148 13.14zm-10.728 0c0-2.832-.792-5.256-2.376-7.272s-3.504-3.024-5.76-3.024c-1.344 0-2.64.456-3.888 1.368s-2.232 2.088-2.952 3.528c-.768 1.728-1.152 3.528-1.152 5.4 0 1.92.384 3.696 1.152 5.328 1.68 3.264 3.96 4.896 6.84 4.896 2.256 0 4.176-1.008 5.76-3.024s2.376-4.416 2.376-7.2z"/><path d="m198.36 22.464c2.544.768 4.752 1.56 6.624 2.376s3.78 1.884 5.724 3.204 3.444 2.964 4.5 4.932 1.584 4.2 1.584 6.696c0 5.088-1.932 8.952-5.796 11.592s-8.868 3.96-15.012 3.96c-4.464 0-8.364-.852-11.7-2.556s-6.564-4.236-9.684-7.596l8.064-7.992c1.008 2.112 2.832 4.068 5.472 5.868s5.256 2.7 7.848 2.7c6.144-.096 9.216-2.088 9.216-5.976 0-2.112-.9-3.756-2.7-4.932s-4.188-2.22-7.164-3.132c-2.448-.72-4.572-1.476-6.372-2.268s-3.66-1.836-5.58-3.132-3.408-2.892-4.464-4.788-1.584-4.068-1.584-6.516c0-4.656 1.836-8.304 5.508-10.944s8.052-3.96 13.14-3.96c8.016 0 15.12 3.408 21.312 10.224l-7.776 7.776c-1.632-2.16-3.624-4.104-5.976-5.832s-4.872-2.592-7.56-2.592c-1.968 0-3.648.444-5.04 1.332s-2.088 2.244-2.088 4.068c0 1.056.276 1.992.828 2.808s1.38 1.524 2.484 2.124 2.076 1.068 2.916 1.404 1.932.72 3.276 1.152z"/><path d="m259.2 34.272v20.304h-10.656v-20.304c0-2.784-.42-4.776-1.26-5.976s-2.292-1.8-4.356-1.8c-4.56 0-6.84 2.592-6.84 7.776v20.304h-10.656v-52.272h10.656v20.664c1.008-2.976 4.224-4.464 9.648-4.464 4.896 0 8.364 1.236 10.404 3.708s3.06 6.492 3.06 12.06z"/><path d="m275.76 29.52-7.92-4.536c3.888-4.368 8.832-6.552 14.832-6.552 4.944 0 8.676 1.116 11.196 3.348s3.78 4.884 3.78 7.956v24.84h-10.656v-2.52c-1.92 2.016-4.56 3.024-7.92 3.024-8.976 0-13.464-3.648-13.464-10.944 0-3.792 1.428-6.828 4.284-9.108s6.708-3.42 11.556-3.42h5.544c0-1.344-.456-2.412-1.368-3.204s-2.136-1.188-3.672-1.188c-2.736 0-4.8.768-6.192 2.304zm11.232 13.32v-3.168h-6.264c-1.44 0-2.592.444-3.456 1.332s-1.2 2.004-1.008 3.348c.288 1.824 1.776 2.736 4.464 2.736 2.112 0 3.684-.456 4.716-1.368s1.548-1.872 1.548-2.88z"/><path d="m342.792 36.864c0 5.328-1.608 9.708-4.824 13.14s-7.416 5.148-12.6 5.148c-1.152 0-2.592-.3-4.32-.9s-2.976-1.284-3.744-2.052v19.08h-10.656v-52.272h10.656v2.52c1.68-2.016 4.128-3.024 7.344-3.024 5.232 0 9.564 1.74 12.996 5.22s5.148 7.86 5.148 13.14zm-10.728 0c0-2.832-.792-5.256-2.376-7.272s-3.504-3.024-5.76-3.024c-1.344 0-2.64.456-3.888 1.368s-2.232 2.088-2.952 3.528c-.768 1.728-1.152 3.528-1.152 5.4 0 1.92.384 3.696 1.152 5.328 1.68 3.264 3.96 4.896 6.84 4.896 2.256 0 4.176-1.008 5.76-3.024s2.376-4.416 2.376-7.2z"/><path d="m384.984 36.864v2.376h-25.344c0 1.968.828 3.648 2.484 5.04s3.42 2.088 5.292 2.088c3.936 0 6.696-1.464 8.28-4.392l7.128 6.552c-3.264 4.416-8.4 6.624-15.408 6.624-5.712 0-10.272-1.704-13.68-5.112s-5.112-7.8-5.112-13.176 1.644-9.78 4.932-13.212 7.692-5.148 13.212-5.148 9.936 1.704 13.248 5.112 4.968 7.824 4.968 13.248zm-25.128-4.392h13.968c-.576-3.456-2.928-5.184-7.056-5.184-1.872 0-3.408.468-4.608 1.404s-1.968 2.196-2.304 3.78z"/></g></g></svg>

<?xml version="1.0" encoding="UTF-8"?>
<svg width="479px" height="127px" viewBox="0 0 479 127" version="1.1" xmlns="http://www.w3.org/2000/svg" xmlns:xlink="http://www.w3.org/1999/xlink">
    <title>outline-logo</title>
    <g id="outline-logo" stroke="none" stroke-width="1" fill="none" fill-rule="evenodd">
        <path d="M37.823915,111.138766 L37.985,110.582 L38.0086064,110.662573 C39.3210341,115.098838 41.3600224,118.627678 44.0768379,121.170637 C49.7693373,126.498858 57.8470265,126.530459 62.8216891,121.513129 L63.2178115,121.100873 C66.2055426,117.899224 67.0851844,114.132072 66.2519388,110.633541 L66.154,110.257 L66.3555432,110.118691 C73.0403029,105.354517 71.9643337,93.7819734 66.1675078,89.5920384 L66.009,89.481 L66.0638432,89.4573171 C71.3708589,86.9983127 71.6877498,77.096473 69.1654521,71.0453252 L68.8809361,70.3766369 C68.6620396,69.8401833 68.4535835,69.2508194 68.2578622,68.6238865 L68.098,68.093 L68.1258918,68.035552 C69.3885581,65.3064406 70.7768441,61.9298425 72.0949479,58.0966914 C74.7346652,50.4201826 76.3923867,42.8443311 76.6154268,35.7040953 C77.2800606,14.4270083 64.980087,0.860764471 38.3047653,0.860764471 C12.7942013,0.860764471 0.315764825,13.3229531 0.00583789298,33.3007635 L-0.000482540325,34.0401322 C-0.016439333,44.8904999 3.28431433,56.2504151 7.77634118,66.3288391 L8.14,67.137 L8.11133964,67.2521948 C7.81358862,68.3855853 7.47077153,69.4564166 7.09268241,70.3815123 L6.81515663,71.0331876 C4.28737194,77.083223 4.60113472,86.9966679 9.91170026,89.4573171 L9.965,89.481 L9.80803566,89.5920384 C3.94854567,93.8272669 2.91252969,105.60558 9.83951301,110.27079 L10.121,110.453 L10.0997659,110.542528 C9.2847307,114.067991 10.1896975,117.859324 13.1722972,121.071314 L13.365099,121.274245 C18.3296807,126.542926 26.4913519,126.5958 32.1543569,121.09336 C34.6660264,118.652905 36.5680774,115.313828 37.823915,111.138766 Z M38.3047653,6.86076447 C91.0261619,6.86076447 63.9409278,63.0730989 61.7407808,67.4717591 C62.089363,68.9871843 62.6168168,70.9192485 63.3500336,72.7028729 L63.5551236,73.185211 C65.2121006,76.9511375 64.6553857,83.6126603 63.5551236,84.0076107 C62.4741643,84.3956322 62.5413423,78.161983 59.8508971,73.4368536 L59.7041059,73.185211 C59.2809442,72.4771562 58.9472632,71.8359955 58.6857922,71.2575141 L58.8006596,71.9897896 C59.3774329,75.8638655 59.6553528,81.0688152 57.7805061,84.1525432 C55.398446,88.2272495 59.7534316,101.385332 61.046118,101.563544 C62.1204706,101.711657 61.9138644,98.7676955 61.8989166,96.5883481 L61.8988122,96.1771224 L61.908877,95.7033586 C61.9468012,94.7024871 62.0995915,94.0770532 62.5901795,94.4109006 C64.8853432,95.9727699 66.7142887,104.052106 61.7363719,105.813913 C57.1991697,107.419741 48.7177048,94.4109008 51.2697842,84.1525432 C52.6471525,79.9946227 50.2315134,71.2511433 49.519187,67.744066 L49.654118,68.6020839 C50.2661183,72.6883576 51.0274788,80.6733222 49.4190314,91.2644663 L49.3254393,91.8667398 C46.770616,107.942235 51.9138178,113.612271 53.5890665,112.963536 C55.9113394,112.051191 54.5215043,108.093745 54.5215043,107.408324 C55.5727919,105.540864 64.051196,111.345918 58.8637959,116.972038 L58.6857922,117.159498 C53.8227014,122.320472 40.9637082,119.013606 42.3710052,93.1594926 C43.2086726,84.9316812 40.5072423,76.6319635 38.0928517,71.6498533 L37.7789067,72.2843204 C35.3580375,77.2653816 32.6711115,84.9035809 33.5116399,93.1594926 C34.9189368,119.013606 22.5949803,122.320472 17.7318896,117.159498 C12.1771599,111.475866 20.4588191,105.520114 21.5217877,107.408324 L21.42484,107.72714 C21.1219108,108.791181 20.3251853,112.196337 22.2780057,112.963536 C23.9365019,113.605783 28.9742955,108.726785 26.595943,93.0311038 L26.5215906,92.5521607 C24.5413905,80.092318 25.8458179,71.1405581 26.5327675,67.744066 L26.4143336,68.2538385 C25.5129928,72.0365307 23.1740935,80.1836191 24.4888541,84.1525432 C27.0409335,94.4109008 18.7763738,107.419741 14.2391716,105.813913 C9.26125478,104.052106 11.0902003,95.9727699 13.385364,94.4109006 C14.9294253,93.3601599 13.1272856,101.811991 14.9294255,101.563544 C16.2221119,101.385332 20.5770975,88.2272495 18.1950374,84.1525432 C16.1992328,80.8698651 16.6429317,75.1834298 17.2897513,71.2575141 C17.0718588,71.739582 16.8038204,72.2651771 16.4756417,72.8367386 L16.2714376,73.185211 C13.4314358,77.9372412 13.520682,84.4025611 12.4204199,84.0076107 C11.3413166,83.6202555 10.785056,77.2050324 12.3272692,73.4056234 L12.4204199,73.185211 C13.443215,70.8606339 14.0994597,68.1842895 14.4519704,66.47615 L14.0307101,65.5789453 C9.02007195,54.7366319 -10.3504528,6.86076447 38.3047653,6.86076447 Z" id="Path" fill="#3C434C" fill-rule="nonzero"></path>
        <circle id="Oval-3" fill="#3C434C" cx="20.9671246" cy="56.9680946" r="4.98904153"></circle>
        <circle id="Oval-3" fill="#3C434C" cx="55.2396707" cy="56.9680946" r="4.98904153"></circle>
        <g id="Ship-Shape" transform="translate(94.752000, 35.424000)" fill="#3C434C" fill-rule="nonzero">
            <path d="M23.76,22.464 C26.304,23.232 28.512,24.024 30.384,24.84 C32.256,25.656 34.164,26.724 36.108,28.044 C38.052,29.364 39.552,31.008 40.608,32.976 C41.664,34.944 42.192,37.176 42.192,39.672 C42.192,44.76 40.26,48.624 36.396,51.264 C32.532,53.904 27.528,55.224 21.384,55.224 C16.92,55.224 13.02,54.372 9.684,52.668 C6.348,50.964 3.12,48.432 -5.68434189e-14,45.072 L8.064,37.08 C9.072,39.192 10.896,41.148 13.536,42.948 C16.176,44.748 18.792,45.648 21.384,45.648 C27.528,45.552 30.6,43.56 30.6,39.672 C30.6,37.56 29.7,35.916 27.9,34.74 C26.1,33.564 23.712,32.52 20.736,31.608 C18.288,30.888 16.164,30.132 14.364,29.34 C12.564,28.548 10.704,27.504 8.784,26.208 C6.864,24.912 5.376,23.316 4.32,21.42 C3.264,19.524 2.736,17.352 2.736,14.904 C2.736,10.248 4.572,6.6 8.244,3.96 C11.916,1.32 16.296,0 21.384,0 C29.4,0 36.504,3.408 42.696,10.224 L34.92,18 C33.288,15.84 31.296,13.896 28.944,12.168 C26.592,10.44 24.072,9.576 21.384,9.576 C19.416,9.576 17.736,10.02 16.344,10.908 C14.952,11.796 14.256,13.152 14.256,14.976 C14.256,16.032 14.532,16.968 15.084,17.784 C15.636,18.6 16.464,19.308 17.568,19.908 C18.672,20.508 19.644,20.976 20.484,21.312 C21.324,21.648 22.416,22.032 23.76,22.464 Z" id="Path"></path>
            <path d="M84.6,34.272 L84.6,54.576 L73.944,54.576 L73.944,34.272 C73.944,31.488 73.524,29.496 72.684,28.296 C71.844,27.096 70.392,26.496 68.328,26.496 C63.768,26.496 61.488,29.088 61.488,34.272 L61.488,54.576 L50.832,54.576 L50.832,2.304 L61.488,2.304 L61.488,22.968 C62.496,19.992 65.712,18.504 71.136,18.504 C76.032,18.504 79.5,19.74 81.54,22.212 C83.58,24.684 84.6,28.704 84.6,34.272 Z" id="Path"></path>
            <path d="M103.464,19.008 L103.464,54.576 L92.808,54.576 L92.808,19.008 L103.464,19.008 Z M103.752,8.784 C103.752,10.32 103.212,11.604 102.132,12.636 C101.052,13.668 99.696,14.184 98.064,14.184 C96.528,14.184 95.208,13.656 94.104,12.6 C93,11.544 92.448,10.272 92.448,8.784 C92.448,7.296 93,6.048 94.104,5.04 C95.208,4.032 96.528,3.528 98.064,3.528 C99.696,3.528 101.052,4.032 102.132,5.04 C103.212,6.048 103.752,7.296 103.752,8.784 Z" id="Shape"></path>
            <path d="M148.248,36.864 C148.248,42.192 146.64,46.572 143.424,50.004 C140.208,53.436 136.008,55.152 130.824,55.152 C129.672,55.152 128.232,54.852 126.504,54.252 C124.776,53.652 123.528,52.968 122.76,52.2 L122.76,71.28 L112.104,71.28 L112.104,19.008 L122.76,19.008 L122.76,21.528 C124.44,19.512 126.888,18.504 130.104,18.504 C135.336,18.504 139.668,20.244 143.1,23.724 C146.532,27.204 148.248,31.584 148.248,36.864 Z M137.52,36.864 C137.52,34.032 136.728,31.608 135.144,29.592 C133.56,27.576 131.64,26.568 129.384,26.568 C128.04,26.568 126.744,27.024 125.496,27.936 C124.248,28.848 123.264,30.024 122.544,31.464 C121.776,33.192 121.392,34.992 121.392,36.864 C121.392,38.784 121.776,40.56 122.544,42.192 C124.224,45.456 126.504,47.088 129.384,47.088 C131.64,47.088 133.56,46.08 135.144,44.064 C136.728,42.048 137.52,39.648 137.52,36.864 Z" id="Shape"></path>
            <path d="M198.36,22.464 C200.904,23.232 203.112,24.024 204.984,24.84 C206.856,25.656 208.764,26.724 210.708,28.044 C212.652,29.364 214.152,31.008 215.208,32.976 C216.264,34.944 216.792,37.176 216.792,39.672 C216.792,44.76 214.86,48.624 210.996,51.264 C207.132,53.904 202.128,55.224 195.984,55.224 C191.52,55.224 187.62,54.372 184.284,52.668 C180.948,50.964 177.72,48.432 174.6,45.072 L182.664,37.08 C183.672,39.192 185.496,41.148 188.136,42.948 C190.776,44.748 193.392,45.648 195.984,45.648 C202.128,45.552 205.2,43.56 205.2,39.672 C205.2,37.56 204.3,35.916 202.5,34.74 C200.7,33.564 198.312,32.52 195.336,31.608 C192.888,30.888 190.764,30.132 188.964,29.34 C187.164,28.548 185.304,27.504 183.384,26.208 C181.464,24.912 179.976,23.316 178.92,21.42 C177.864,19.524 177.336,17.352 177.336,14.904 C177.336,10.248 179.172,6.6 182.844,3.96 C186.516,1.32 190.896,0 195.984,0 C204,0 211.104,3.408 217.296,10.224 L209.52,18 C207.888,15.84 205.896,13.896 203.544,12.168 C201.192,10.44 198.672,9.576 195.984,9.576 C194.016,9.576 192.336,10.02 190.944,10.908 C189.552,11.796 188.856,13.152 188.856,14.976 C188.856,16.032 189.132,16.968 189.684,17.784 C190.236,18.6 191.064,19.308 192.168,19.908 C193.272,20.508 194.244,20.976 195.084,21.312 C195.924,21.648 197.016,22.032 198.36,22.464 Z" id="Path"></path>
            <path d="M259.2,34.272 L259.2,54.576 L248.544,54.576 L248.544,34.272 C248.544,31.488 248.124,29.496 247.284,28.296 C246.444,27.096 244.992,26.496 242.928,26.496 C238.368,26.496 236.088,29.088 236.088,34.272 L236.088,54.576 L225.432,54.576 L225.432,2.304 L236.088,2.304 L236.088,22.968 C237.096,19.992 240.312,18.504 245.736,18.504 C250.632,18.504 254.1,19.74 256.14,22.212 C258.18,24.684 259.2,28.704 259.2,34.272 Z" id="Path"></path>
            <path d="M275.76,29.52 L267.84,24.984 C271.728,20.616 276.672,18.432 282.672,18.432 C287.616,18.432 291.348,19.548 293.868,21.78 C296.388,24.012 297.648,26.664 297.648,29.736 L297.648,54.576 L286.992,54.576 L286.992,52.056 C285.072,54.072 282.432,55.08 279.072,55.08 C270.096,55.08 265.608,51.432 265.608,44.136 C265.608,40.344 267.036,37.308 269.892,35.028 C272.748,32.748 276.6,31.608 281.448,31.608 L286.992,31.608 C286.992,30.264 286.536,29.196 285.624,28.404 C284.712,27.612 283.488,27.216 281.952,27.216 C279.216,27.216 277.152,27.984 275.76,29.52 Z M286.992,42.84 L286.992,39.672 L280.728,39.672 C279.288,39.672 278.136,40.116 277.272,41.004 C276.408,41.892 276.072,43.008 276.264,44.352 C276.552,46.176 278.04,47.088 280.728,47.088 C282.84,47.088 284.412,46.632 285.444,45.72 C286.476,44.808 286.992,43.848 286.992,42.84 Z" id="Shape"></path>
            <path d="M342.792,36.864 C342.792,42.192 341.184,46.572 337.968,50.004 C334.752,53.436 330.552,55.152 325.368,55.152 C324.216,55.152 322.776,54.852 321.048,54.252 C319.32,53.652 318.072,52.968 317.304,52.2 L317.304,71.28 L306.648,71.28 L306.648,19.008 L317.304,19.008 L317.304,21.528 C318.984,19.512 321.432,18.504 324.648,18.504 C329.88,18.504 334.212,20.244 337.644,23.724 C341.076,27.204 342.792,31.584 342.792,36.864 Z M332.064,36.864 C332.064,34.032 331.272,31.608 329.688,29.592 C328.104,27.576 326.184,26.568 323.928,26.568 C322.584,26.568 321.288,27.024 320.04,27.936 C318.792,28.848 317.808,30.024 317.088,31.464 C316.32,33.192 315.936,34.992 315.936,36.864 C315.936,38.784 316.32,40.56 317.088,42.192 C318.768,45.456 321.048,47.088 323.928,47.088 C326.184,47.088 328.104,46.08 329.688,44.064 C331.272,42.048 332.064,39.648 332.064,36.864 Z" id="Shape"></path>
            <path d="M384.984,36.864 L384.984,39.24 L359.64,39.24 C359.64,41.208 360.468,42.888 362.124,44.28 C363.78,45.672 365.544,46.368 367.416,46.368 C371.352,46.368 374.112,44.904 375.696,41.976 L382.824,48.528 C379.56,52.944 374.424,55.152 367.416,55.152 C361.704,55.152 357.144,53.448 353.736,50.04 C350.328,46.632 348.624,42.24 348.624,36.864 C348.624,31.488 350.268,27.084 353.556,23.652 C356.844,20.22 361.248,18.504 366.768,18.504 C372.288,18.504 376.704,20.208 380.016,23.616 C383.328,27.024 384.984,31.44 384.984,36.864 Z M359.856,32.472 L373.824,32.472 C373.248,29.016 370.896,27.288 366.768,27.288 C364.896,27.288 363.36,27.756 362.16,28.692 C360.96,29.628 360.192,30.888 359.856,32.472 Z" id="Shape"></path>
        </g>
    </g>
</svg>
